storage/app/icons/phosphoricons/light/rug-light.svg

<svg xmlns="http://www.w3.org/2000/svg" fill="currentColor" viewBox="0 0 256 256"><path d="M200 18a6 6 0 0 0-6 6v18h-36V24a6 6 0 0 0-12 0v18h-36V24a6 6 0 0 0-12 0v18H62V24a6 6 0 0 0-12 0v208a6 6 0 0 0 12 0v-18h36v18a6 6 0 0 0 12 0v-18h36v18a6 6 0 0 0 12 0v-18h36v18a6 6 0 0 0 12 0V24a6 6 0 0 0-6-6M62 54h132v148H62Zm66 120a6 6 0 0 0 5.14-2.91l24-40a6 6 0 0 0 0-6.18l-24-40a6 6 0 0 0-10.28 0l-24 40a6 6 0 0 0 0 6.18l24 40A6 6 0 0 0 128 174m0-74.34L145 128l-17 28.34L111 128Z"/></svg>

<svg xmlns="http://www.w3.org/2000/svg" viewBox="0 0 256 256" fill="currentColor"><path d="M200,18a6,6,0,0,0-6,6V42H158V24a6,6,0,0,0-12,0V42H110V24a6,6,0,0,0-12,0V42H62V24a6,6,0,0,0-12,0V232a6,6,0,0,0,12,0V214H98v18a6,6,0,0,0,12,0V214h36v18a6,6,0,0,0,12,0V214h36v18a6,6,0,0,0,12,0V24A6,6,0,0,0,200,18ZM62,54H194V202H62Zm66,120a6,6,0,0,0,5.14-2.91l24-40a6,6,0,0,0,0-6.18l-24-40a6,6,0,0,0-10.28,0l-24,40a6,6,0,0,0,0,6.18l24,40A6,6,0,0,0,128,174Zm0-74.34L145,128l-17,28.34L111,128Z"/></svg>
